X: 209
T: Guan deng
%%abc-version 2.0
%%abcx-abcm2ps-target-version 5.9.1 (29 Sep 2008)
%%abc-creator hum2abc beta
%%abcx-conversion-date 2013/10/02 07:52:29
%%abc-edited-by Helmut Schaffrath
%%humdrum-veritas 2756985863
%%humdrum-veritas-data 3639298662
%%continueall 1
%%barnumbers 0
L: 1/8
M: 2/4
K: A
c e/ e/ c e [I:setbarnb 1]| 
c ec2 | 
c e/ e/ c e | 
c ec2 | 
a a/ f/e2- | 
e e/ c/B2 | 
e> f e3/ f/ | 
c> B A3/ E/ | 
c F c c/ c/ | 
F c B A | 
A E A F | 
E4 | 
A FA2- | 
AB2A | 
B2A F | 
A FE2 | 
c e c z | 
c e c z | 
c e c e | 
c e c z | 
c> e A B | 
e4 | 
G> c B A | 
A F e3/ c/ | 
B> A A E | 
A FE2 |]  



